X:48
T:Kas a barh
C:Loffet tab
M:C
L:1/8
K:G
G2 BA G2 d2|c2 Bc AGAB|G2 FG A2 AB|G2 FG AcBA|\
G2 BA G2 d2|c2 Bc AGAB|G2 FG BGAF|G2 Bd G4:|
|:G2 FG d3e|dBcd e2 =fe|d2 Bd G2 Bd|c2B2 A4|\
G2 FG d3e|dBcB A2 dB|G2 FG BGAF|G2 Bd G4:|
